svg-color/threema.inverted.edged.svg

<?xml version="1.0" encoding="UTF-8"?>
<!-- Created with Inkscape (http://www.inkscape.org/) -->
<svg id="svg2" width="32" height="32" version="1.1" viewBox="0 0 32 32" xmlns="http://www.w3.org/2000/svg">
 <path id="rect4576" d="m0 0v32h32v-32h-32zm16 4.5a11 8.5 0 0 1 11 8.5 11 8.5 0 0 1 -11 8.5 11 8.5 0 0 1 -3.8906 -0.56055l-6.1504 1.9316 2.0859-4.0059a11 8.5 0 0 1 -3.0449 -5.8652 11 8.5 0 0 1 11 -8.5zm0 2.5a3 3 0 0 0 -3 3v2.5039h-1v5.4961h8v-5.4961h-1v-2.5039a3 3 0 0 0 -3 -3zm0 1a2 2 0 0 1 2 2v2.5039h-4v-2.5039a2 2 0 0 1 2 -2zm-6.25 16.5a1.75 1.75 0 0 1 1.75 1.75 1.75 1.75 0 0 1 -1.75 1.75 1.75 1.75 0 0 1 -1.75 -1.75 1.75 1.75 0 0 1 1.75 -1.75zm6.25 0a1.75 1.75 0 0 1 1.75 1.75 1.75 1.75 0 0 1 -1.75 1.75 1.75 1.75 0 0 1 -1.75 -1.75 1.75 1.75 0 0 1 1.75 -1.75zm6.25 0a1.75 1.75 0 0 1 1.75 1.75 1.75 1.75 0 0 1 -1.75 1.75 1.75 1.75 0 0 1 -1.75 -1.75 1.75 1.75 0 0 1 1.75 -1.75z" fill="#4b4b4b" stroke-width="0" style="paint-order:markers fill stroke"/>
</svg>

<svg width="32" height="32" viewBox="0 0 32 32" xmlns="http://www.w3.org/2000/svg">
    <path d="M0 0v32h32V0H0zm16 4.5A11 8.5 0 0 1 27 13a11 8.5 0 0 1-11 8.5 11 8.5 0 0 1-3.89-.56l-6.15 1.93 2.085-4.005A11 8.5 0 0 1 5 13a11 8.5 0 0 1 11-8.5zM16 7a3 3 0 0 0-3 3v2.504h-1V18h8v-5.496h-1V10a3 3 0 0 0-3-3zm0 1a2 2 0 0 1 2 2v2.504h-4V10a2 2 0 0 1 2-2zM9.75 24.5a1.75 1.75 0 0 1 1.75 1.75A1.75 1.75 0 0 1 9.75 28 1.75 1.75 0 0 1 8 26.25a1.75 1.75 0 0 1 1.75-1.75zm6.25 0a1.75 1.75 0 0 1 1.75 1.75A1.75 1.75 0 0 1 16 28a1.75 1.75 0 0 1-1.75-1.75A1.75 1.75 0 0 1 16 24.5zm6.25 0A1.75 1.75 0 0 1 24 26.25 1.75 1.75 0 0 1 22.25 28a1.75 1.75 0 0 1-1.75-1.75 1.75 1.75 0 0 1 1.75-1.75z" fill="#4b4b4b" paint-order="markers fill stroke"/>
</svg>
